src/assets/svg/close-circle-percent.svg

<svg enable-background="new -12 14 24 24" viewBox="-12 14 24 24" xmlns="http://www.w3.org/2000/svg"><g fill="#665191"><circle cx="-2.8" cy="23.7" r=".8"/><circle cx="2.8" cy="28.2" r=".8"/><path d="m5.7 20.3c-1.6-1.5-3.6-2.3-5.7-2.3s-4.1.8-5.7 2.3c-1.5 1.6-2.3 3.6-2.3 5.7s.8 4.1 2.3 5.7c1.6 1.5 3.6 2.3 5.7 2.3s4.1-.8 5.7-2.3c3.1-3.2 3.1-8.2 0-11.4zm-10.8 3.4c0-1.2 1-2.3 2.3-2.3s2.3 1 2.3 2.3-1 2.3-2.3 2.3-2.3-1-2.3-2.3zm2.9 6.5c-.2.2-.4.3-.6.3s-.3-.1-.5-.2-.3-.4-.3-.6.1-.3.2-.5l5.6-7.5c.1-.2.4-.3.6-.3s.3.1.5.2.3.4.3.6 0 .3-.1.5zm5 .3c-1.2 0-2.3-1-2.3-2.3 0-1.2 1-2.3 2.3-2.3s2.3 1 2.3 2.3-1 2.3-2.3 2.3z"/></g></svg>

<?xml version="1.0" encoding="utf-8"?>
<!-- Generator: Adobe Illustrator 19.0.0, SVG Export Plug-In . SVG Version: 6.00 Build 0)  -->
<svg version="1.1" id="Layer_1" xmlns="http://www.w3.org/2000/svg" xmlns:xlink="http://www.w3.org/1999/xlink" x="0px" y="0px"
	 viewBox="-12 14 24 24" style="enable-background:new -12 14 24 24;" xml:space="preserve">
<style type="text/css">
	.st0{fill:#665191;}
</style>
<g>
	<circle class="st0" cx="-2.8" cy="23.7" r="0.8"/>
	<circle class="st0" cx="2.8" cy="28.2" r="0.8"/>
	<path class="st0" d="M5.7,20.3C4.1,18.8,2.1,18,0,18c-2.1,0-4.1,0.8-5.7,2.3C-7.2,21.9-8,23.9-8,26s0.8,4.1,2.3,5.7
		C-4.1,33.2-2.1,34,0,34c2.1,0,4.1-0.8,5.7-2.3C8.8,28.5,8.8,23.5,5.7,20.3z M-5.1,23.7c0-1.2,1-2.3,2.3-2.3s2.3,1,2.3,2.3
		s-1,2.3-2.3,2.3S-5.1,25-5.1,23.7z M-2.2,30.2c-0.2,0.2-0.4,0.3-0.6,0.3c-0.2,0-0.3-0.1-0.5-0.2c-0.2-0.1-0.3-0.4-0.3-0.6
		c0-0.2,0.1-0.3,0.2-0.5l5.6-7.5c0.1-0.2,0.4-0.3,0.6-0.3c0.2,0,0.3,0.1,0.5,0.2c0.2,0.1,0.3,0.4,0.3,0.6c0,0.2,0,0.3-0.1,0.5
		L-2.2,30.2z M2.8,30.5c-1.2,0-2.3-1-2.3-2.3c0-1.2,1-2.3,2.3-2.3s2.3,1,2.3,2.3C5.1,29.5,4.1,30.5,2.8,30.5z"/>
</g>
</svg>
